X:839
T:Shetland Fiddler's Society, The
C:Joe Buchanan's Scottish Tome - Page 406.2
I:406 2
Z:Carl Allison
R:Strathspey
C:Ronnie Cooper
C:Shetland Fiddler's Shanty, The
L:1/8
M:4/4
K:D
A, | "D"D2 D>E D>F "A"(3ABc | "D"(3dcB (3ABc d>A F<D | "Em"E2 E>B G>B e>d | "A"(3cde B>d "A7"c<A A>F |
"D"D2 D>E D>F "A"(3ABc | "D"(3dcB (3ABc d>A F<D | "Em"G>BE>G F<A D>F | G>B "A7"(3ABc d<D D :|
g | "D"(3fed (3edc d>A>FA | "D"(3def "A7"e>g "D"f<d d>f | "Em"(3gfe (3fed (3eBG | "A7"(3cde "E7"B>d "A"c<A A>g |
"D"(3fed "A7"(3edc "D"d>AF>A | "D"(3def "A7"e>g "D"f>dA>F | "Em"G>BE>G "D"F<A D>F | "Em"G>B "A7"(3ABc "D"d<D D :|

